X: 5
T: The Frost Is All Over
R: jig
M: 6/8
L: 1/8
K: Cmaj
c/d/ec dBG|A/B/cE D2C|E/F/GE G2G|c/d/ec d2d|c/d/ec dBG|A/B/cE D2C|E/F/GG A/B/cc|e/f/ge c3:||:e/f/ge gec|f/g/af a2a|e/f/ge gec|dGd d3|e/f/ge gec|f/g/af agf|e/f/ge dBG|A/B/cE C3:|cec dBG|AcE D2C|EGG G2G|cec d2d|cec dBG|AcE D2C|EGG egf|e2d c3:||:ege gec|faf afd|ege gec|B/c/dB G2G|ege gec|faf afd|edc BAB|cGE C3:|


Tune 448	Setting 13316

